X: 12819
T: Feet Washing, The
R: reel
M: 4/4
K: Emajor
g|:ec (3ccc c2 Gc|Bc de fb fd|ec (3ccc c2 Gc|eg fd (3ccc cg:|
ef ge de fb|dB fB gB fB|ef ge de fb|dB fd (3ccc cg|
ef ge de fb|(3dcB fB gB fB|ef ga bg fe|dB fd (3ccc cg|

